svgs/light/chart-bar.svg

<svg xmlns="http://www.w3.org/2000/svg" viewBox="0 0 512 512"><!--! Font Awesome Pro 6.4.0 by @fontawesome - https://fontawesome.com License - https://fontawesome.com/license (Commercial License) Copyright 2023 Fonticons, Inc. --><path d="M16 32c8.8 0 16 7.2 16 16V400c0 26.5 21.5 48 48 48H496c8.8 0 16 7.2 16 16s-7.2 16-16 16H80c-44.2 0-80-35.8-80-80V48c0-8.8 7.2-16 16-16zM128 144c0-8.8 7.2-16 16-16l224 0c8.8 0 16 7.2 16 16s-7.2 16-16 16l-224 0c-8.8 0-16-7.2-16-16zm16 80H304c8.8 0 16 7.2 16 16s-7.2 16-16 16H144c-8.8 0-16-7.2-16-16s7.2-16 16-16zm0 96H432c8.8 0 16 7.2 16 16s-7.2 16-16 16H144c-8.8 0-16-7.2-16-16s7.2-16 16-16z"/></svg>

<svg xmlns="http://www.w3.org/2000/svg" viewBox="0 0 512 512"><!--! Font Awesome Pro 6.3.0 by @fontawesome - https://fontawesome.com License - https://fontawesome.com/license (Commercial License) Copyright 2023 Fonticons, Inc. --><path d="M16 32C24.84 32 32 39.16 32 48V400C32 426.5 53.49 448 80 448H496C504.8 448 512 455.2 512 464C512 472.8 504.8 480 496 480H80C35.82 480 0 444.2 0 400V48C0 39.16 7.164 32 16 32zM128 144C128 135.2 135.2 128 144 128H368C376.8 128 384 135.2 384 144C384 152.8 376.8 160 368 160H144C135.2 160 128 152.8 128 144zM304 224C312.8 224 320 231.2 320 240C320 248.8 312.8 256 304 256H144C135.2 256 128 248.8 128 240C128 231.2 135.2 224 144 224H304zM432 320C440.8 320 448 327.2 448 336C448 344.8 440.8 352 432 352H144C135.2 352 128 344.8 128 336C128 327.2 135.2 320 144 320H432z"/></svg>
